lib/brands/icons/yahoo.svg

<svg xmlns="http://www.w3.org/2000/svg" fill="none" aria-hidden="true" viewBox="0 0 48 48"><path fill="#5F01D1" d="M21.3 16.062 17.088 26.16 12.93 16.062H6l7.722 17.352-2.772 6.246h6.75l10.332-23.598H21.3Zm8.1 9.252c-2.466 0-4.338 1.872-4.338 4.086 0 2.106 1.8 3.888 4.212 3.888 2.502 0 4.374-1.854 4.374-4.068 0-2.178-1.8-3.906-4.248-3.906ZM34.296 8.34l-6.894 15.462h7.704L42 8.34h-7.704Z"/></svg>

<svg xmlns="http://www.w3.org/2000/svg" fill="none" aria-hidden="true" viewBox="0 0 48 48"><g id="yahoo-Icon"><path id="Vector" fill="#5F01D1" d="M21.3 16.062L17.088 26.16L12.93 16.062H6L13.722 33.414L10.95 39.66H17.7L28.032 16.062H21.3ZM29.4 25.314C26.934 25.314 25.062 27.186 25.062 29.4C25.062 31.506 26.862 33.288 29.274 33.288C31.776 33.288 33.648 31.434 33.648 29.22C33.648 27.042 31.848 25.314 29.4 25.314ZM34.296 8.34003L27.402 23.802H35.106L42 8.34003H34.296Z"/></g></svg>
